public/media/icons-technologies/POSTMAN.svg

<svg width="140" height="140" viewBox="0 0 140 140" fill="none" xmlns="http://www.w3.org/2000/svg">
<path d="M117.487 33.3275C110.234 23.9346 100.358 16.9038 89.1082 13.1242C77.8586 9.34462 65.7408 8.98604 54.2874 12.0938C42.8341 15.2016 32.5595 21.6361 24.7633 30.5837C16.9671 39.5312 11.9993 50.5898 10.4883 62.3608C8.97737 74.1318 10.991 86.0866 16.2747 96.7131C21.5583 107.34 29.8746 116.161 40.1717 122.06C50.4689 127.96 62.2843 130.674 74.1238 129.858C85.9632 129.042 97.2949 124.734 106.686 117.477C132.898 97.22 137.737 59.5494 117.487 33.3275Z" fill="#FF6C37"/>
<path d="M90.2082 48.2131L64.9419 73.736L57.8019 66.3794C82.6693 41.457 85.1635 43.709 90.2082 48.2131Z" fill="white"/>
<path d="M64.9423 74.4542C64.7186 74.4487 64.5049 74.3596 64.3432 74.2045L57.1541 66.9945C56.9922 66.8265 56.9017 66.602 56.9017 66.3683C56.9017 66.1347 56.9922 65.9102 57.1541 65.7422C81.6664 41.1588 85.012 42.3097 90.8026 47.567C90.8996 47.6448 90.9771 47.7442 91.0291 47.8573C91.0811 47.9704 91.1061 48.0941 91.1022 48.2185C91.1396 48.4626 91.046 48.7123 90.8532 48.8701L65.5919 74.2064C65.4148 74.3692 65.1826 74.4566 64.9423 74.4542ZM59.0506 66.3937L64.9423 72.3025L88.9061 48.2692C88.0787 47.2293 86.8981 46.5318 85.59 46.3101C84.282 46.0884 82.9384 46.3581 81.8162 47.0676C77.4728 49.0203 70.4839 54.9779 59.0506 66.3937Z" fill="#FF6C37"/>
<path d="M72.1729 80.7577L65.2738 73.7084L90.5697 48.7097C97.3694 55.3597 87.2701 66.4604 72.1729 80.7577Z" fill="white"/>
<path d="M72.1892 81.658C71.968 81.6404 71.758 81.5532 71.5895 81.4089L64.5429 74.5167C64.4372 74.2606 64.4372 73.9731 64.5429 73.717C64.468 73.5068 64.468 73.2773 64.5429 73.0671L89.8302 47.7965C90.006 47.6314 90.2382 47.5394 90.4795 47.5394C90.7208 47.5394 90.9531 47.6314 91.1289 47.7965C91.9478 48.5497 92.5948 49.4704 93.0259 50.4958C93.457 51.5212 93.662 52.6274 93.6271 53.7391C93.6271 60.4814 85.9302 68.9711 72.8377 81.3583C72.6628 81.5313 72.4345 81.6374 72.1892 81.658ZM66.5913 73.717L72.238 79.3581C82.2326 69.9188 91.7792 60.1799 91.828 53.5874C91.8823 52.1898 91.42 50.8211 90.5292 49.7424L66.5913 73.717Z" fill="#FF6C37"/>
<path d="M57.9509 66.5436L62.9223 71.5503C62.954 71.5784 62.9794 71.6131 62.9968 71.652C63.0143 71.6908 63.0233 71.7329 63.0233 71.7755C63.0233 71.8182 63.0143 71.8603 62.9968 71.8991C62.9794 71.938 62.954 71.9726 62.9223 72.0008L52.4334 74.2535C52.2217 74.2996 52.0009 74.2746 51.8045 74.1825C51.6081 74.0905 51.447 73.9363 51.3457 73.7435C51.2444 73.5507 51.2084 73.3298 51.2433 73.1145C51.2781 72.8992 51.3818 72.7013 51.5387 72.5508L57.6527 66.4441C57.6527 66.4441 57.8522 66.4441 57.9509 66.5436Z" fill="white"/>
<path d="M52.1988 75.2664C51.8659 75.2622 51.5397 75.172 51.2512 75.0044C50.9628 74.8368 50.7218 74.5975 50.5512 74.3092C50.3593 73.9441 50.2896 73.5261 50.3527 73.1178C50.4158 72.7094 50.6083 72.3326 50.9013 72.0437L56.9916 65.8513C57.2112 65.6534 57.4955 65.5439 57.7901 65.5439C58.0847 65.5439 58.3689 65.6534 58.5886 65.8513L63.5817 70.8864C63.8775 71.1696 63.9936 71.5982 63.8813 71.9946C63.769 72.3911 63.4395 72.7064 63.0332 72.8008L52.4983 75.0663L52.1988 75.2664ZM57.791 67.6147L52.1501 73.3029L61.4867 71.2885L57.791 67.6147Z" fill="#FF6C37"/>
<path d="M103.713 34.1513C100.087 30.6518 94.389 30.5052 90.5856 33.8074C86.7822 37.1095 86.132 42.7778 89.0935 46.8561C92.0551 50.9344 97.6381 52.0771 101.96 49.4873L95.1444 42.6707L103.713 34.1513Z" fill="white"/>
<path d="M96.9019 51.7667C94.8204 51.7401 92.7927 51.1039 91.0716 49.9372C89.3505 48.7705 88.012 47.125 87.223 45.2058C86.4345 43.288 86.2277 41.182 86.628 39.1483C87.0284 37.1145 88.0184 35.2424 89.4756 33.7635C91.4798 31.8033 94.1761 30.7052 96.9845 30.7052C99.7929 30.7052 102.489 31.8033 104.493 33.7635C104.685 33.9243 104.794 34.1618 104.794 34.4124C104.793 34.5357 104.766 34.6575 104.714 34.7695C104.663 34.8814 104.587 34.981 104.493 35.0614L96.3838 42.6921L102.541 48.7275C102.641 48.8224 102.716 48.9402 102.759 49.0707C102.803 49.2011 102.814 49.3401 102.791 49.4756C102.776 49.6064 102.732 49.7323 102.663 49.8445C102.594 49.9566 102.501 50.0523 102.391 50.1246C100.737 51.1547 98.8351 51.7232 96.885 51.7705L96.9019 51.7667ZM96.9019 32.415C93.3352 32.4337 90.1439 34.5714 88.8055 37.8388C87.467 41.1062 88.1954 44.8673 90.6958 47.3772C91.9395 48.6235 93.5321 49.4666 95.2648 49.796C96.9975 50.1253 98.7897 49.9257 100.407 49.2232L94.4991 43.3374C94.4052 43.2626 94.3293 43.1677 94.2772 43.0597C94.2251 42.9517 94.1981 42.8335 94.1981 42.7137C94.1981 42.5939 94.2251 42.4756 94.2772 42.3676C94.3293 42.2596 94.4052 42.1647 94.4991 42.0899L102.308 34.2591C100.756 33.0738 98.8577 32.4275 96.9019 32.415Z" fill="#FF6C37"/>
<path d="M103.799 34.306L95.2513 42.8075L102.05 49.6099C102.735 49.2168 103.372 48.7468 103.949 48.2089C105.731 46.3245 106.712 43.8211 106.684 41.2271C106.656 38.6332 105.621 36.1515 103.799 34.306Z" fill="white"/>
<path d="M101.94 50.3844C101.828 50.3905 101.717 50.3712 101.613 50.328C101.509 50.2848 101.417 50.2187 101.342 50.1348L94.5608 43.3277C94.4673 43.2527 94.3918 43.1574 94.3399 43.0491C94.288 42.9407 94.261 42.8221 94.261 42.7018C94.261 42.5816 94.288 42.4629 94.3399 42.3546C94.3918 42.2462 94.4673 42.151 94.5608 42.0759L103.036 33.7187C103.118 33.5948 103.229 33.4932 103.36 33.4229C103.49 33.3526 103.636 33.3158 103.784 33.3158C103.932 33.3158 104.078 33.3526 104.208 33.4229C104.339 33.4932 104.45 33.5948 104.532 33.7187C105.527 34.6972 106.317 35.8652 106.857 37.1543C107.396 38.4433 107.674 39.8275 107.674 41.2258C107.674 42.624 107.396 44.0082 106.857 45.2972C106.317 46.5863 105.527 47.7543 104.532 48.7328C103.945 49.3577 103.273 49.8966 102.537 50.3337C102.351 50.4275 102.139 50.4457 101.94 50.3844ZM96.4567 42.6784L102.09 48.3331C102.478 48.0604 102.844 47.7593 103.188 47.4322C104.844 45.7745 105.776 43.5246 105.781 41.177C105.785 39.076 105.022 37.0464 103.636 35.4716L96.4567 42.6784Z" fill="#FF6C37"/>
<path d="M91.2695 49.252C90.5931 48.6144 89.7 48.2595 88.7721 48.2595C87.8442 48.2595 86.9512 48.6144 86.2748 49.252L63.6534 71.9062L67.399 75.7164L91.32 54.6636C91.6848 54.3127 91.9742 53.8906 92.1703 53.4232C92.3664 52.9558 92.4652 52.453 92.4604 51.9459C92.4557 51.4388 92.3476 50.938 92.1428 50.4743C91.938 50.0107 91.6408 49.596 91.2695 49.252Z" fill="white"/>
<path d="M67.1413 76.6118C66.917 76.6063 66.7028 76.5172 66.5407 76.3619L62.7361 72.5541C62.5738 72.386 62.4831 72.1614 62.4831 71.9276C62.4831 71.6938 62.5738 71.4692 62.7361 71.3011L85.4098 48.7077C86.0628 48.0548 86.8968 47.6134 87.8036 47.4407C88.7103 47.2679 89.648 47.3719 90.495 47.7389C91.342 48.106 92.0593 48.7193 92.5539 49.4994C93.0484 50.2794 93.2974 51.1901 93.2686 52.1135C93.2426 52.7402 93.0919 53.3555 92.8254 53.9232C92.5588 54.4909 92.1818 54.9997 91.7163 55.4198L67.7419 76.4596C67.5676 76.5832 67.3533 76.6387 67.1413 76.6118ZM64.4892 71.9004L66.9912 74.4552L90.5151 53.9657C91.0969 53.4585 91.4442 52.7334 91.4667 51.9613C91.4892 51.1892 91.1852 50.4341 90.6164 49.9081C90.0912 49.3846 89.3802 49.0907 88.6391 49.0907C87.8979 49.0907 87.1869 49.3846 86.6617 49.9081L64.4892 71.9004Z" fill="#FF6C37"/>
<path d="M46.0798 97.6406C46.0158 97.7276 45.9813 97.8327 45.9813 97.9407C45.9813 98.0487 46.0158 98.1539 46.0798 98.2409L47.0794 102.593C47.1194 102.85 47.0815 103.112 46.9704 103.346C46.8594 103.58 46.6804 103.776 46.4568 103.907C46.234 104.037 45.9755 104.093 45.7187 104.067C45.4619 104.041 45.22 103.935 45.0277 103.762L38.177 97.1584L59.5318 75.6265H66.9339L71.9355 80.63C64.1334 87.4542 55.434 93.1775 46.0798 97.6406Z" fill="white"/>
<path d="M45.6274 104.974C45.0611 104.963 44.5023 104.73 44.1273 104.324L37.5775 97.7864C37.4837 97.7115 37.4079 97.6166 37.3559 97.5085C37.3038 97.4005 37.2768 97.2821 37.2768 97.1622C37.2768 97.0423 37.3038 96.924 37.3559 96.8159C37.4079 96.7078 37.4837 96.6129 37.5775 96.538L59.0776 75.0265C59.198 74.8988 59.3553 74.8118 59.5276 74.7776H66.9774C67.1716 74.7091 67.3833 74.7091 67.5775 74.7776L72.5784 79.7694C72.6735 79.8569 72.7459 79.9662 72.7893 80.0878C72.8328 80.2094 72.846 80.3397 72.8278 80.4676C72.8313 80.5916 72.8061 80.7147 72.754 80.8274C72.702 80.9401 72.6246 81.0392 72.5278 81.117L72.1284 81.467C64.2959 87.9849 55.6787 93.5011 46.4768 97.8875L47.4275 101.93C47.501 102.242 47.5038 102.567 47.4357 102.88C47.3676 103.193 47.2304 103.487 47.034 103.74C46.8376 103.994 46.5871 104.2 46.3005 104.344C46.014 104.489 45.6989 104.568 45.378 104.575L45.6274 104.974ZM39.5276 97.1369L45.4267 103.076C45.4817 103.125 45.5528 103.152 45.6264 103.152C45.7001 103.152 45.7712 103.125 45.8261 103.076C45.8629 103.025 45.8827 102.964 45.8827 102.901C45.8827 102.838 45.8629 102.777 45.8261 102.726L44.8267 98.3835C44.7479 98.0719 44.7796 97.7426 44.9163 97.4516C45.053 97.1606 45.2863 96.9258 45.5767 96.7869C54.5312 92.4591 62.9263 87.0621 70.5777 80.7146L66.4768 76.6212H59.777L39.5276 97.1369Z" fill="#FF6C37"/>
<path d="M32.9789 102.291L38.0027 97.3218L45.7389 104.974L33.4329 104.13C33.2216 104.113 33.0209 104.031 32.8596 103.895C32.6982 103.76 32.5843 103.577 32.5342 103.373C32.484 103.169 32.5002 102.955 32.5804 102.761C32.6606 102.567 32.8008 102.403 32.9808 102.293L32.9789 102.291Z" fill="white"/>
<path d="M45.8856 105.784L33.6872 104.929C32.9636 104.861 32.3412 104.363 32.0863 103.697C31.8313 103.031 31.9869 102.24 32.4874 101.708L37.4872 96.6759C37.6549 96.5128 37.8791 96.4216 38.1124 96.4216C38.3456 96.4216 38.5698 96.5128 38.7376 96.6759L46.3862 104.374C46.4921 104.52 46.5491 104.697 46.5491 104.877C46.5491 105.058 46.4921 105.234 46.3862 105.38C46.2705 105.568 46.0936 105.712 45.8856 105.784ZM33.6872 102.967L43.6848 103.622L38.1864 98.4383L33.6872 102.967Z" fill="#FF6C37"/>
<path d="M67.6144 76.2465L57.5319 77.787L63.3714 72.0255L67.6144 76.2465Z" fill="white"/>
<path d="M57.5035 78.7769C57.3361 78.7813 57.1711 78.7359 57.0291 78.6463C56.8871 78.5568 56.7744 78.4271 56.7051 78.2733C56.5989 78.1276 56.5416 77.9515 56.5416 77.7707C56.5416 77.5899 56.5989 77.4138 56.7051 77.2681L62.4884 71.3841C62.6638 71.2178 62.8955 71.1252 63.1363 71.1252C63.377 71.1252 63.6087 71.2178 63.7841 71.3841L68.0249 75.6576C68.1096 75.7931 68.1545 75.95 68.1545 76.1102C68.1545 76.2704 68.1096 76.4273 68.0249 76.5628C67.9833 76.728 67.8954 76.8775 67.7717 76.9936C67.648 77.1096 67.4938 77.1873 67.3274 77.2172L57.3557 78.7769H57.5035ZM63.3373 73.2945L60.0969 76.5628L65.682 75.7085L63.3373 73.2945Z" fill="#FF6C37"/>
<path d="M67.6144 76.2419L60.5274 77.1347C60.3377 77.1771 60.1392 77.1582 59.9613 77.0806C59.7835 77.003 59.6356 76.8709 59.5398 76.7039C59.444 76.5369 59.4052 76.3439 59.4293 76.1535C59.4534 75.9631 59.539 75.7854 59.6735 75.6467L63.3433 72.0255L67.6144 76.2419Z" fill="white"/>
<path d="M60.349 78.057C60.0223 78.0539 59.7023 77.9643 59.4215 77.7974C59.1406 77.6305 58.909 77.3922 58.7501 77.1068C58.5593 76.7647 58.4853 76.3696 58.5394 75.9816C58.5935 75.5936 58.7728 75.2339 59.05 74.9571L62.6995 71.308C62.8754 71.1428 63.1077 71.0508 63.349 71.0508C63.5904 71.0508 63.8226 71.1428 63.9985 71.308L68.2478 75.5568C68.3742 75.6765 68.4631 75.8303 68.5038 75.9996C68.5445 76.1688 68.5352 76.3462 68.4771 76.5103C68.419 76.6744 68.3145 76.818 68.1763 76.9239C68.0381 77.0298 67.8722 77.0933 67.6986 77.1068L60.7014 78.0064L60.349 78.057ZM60.349 76.2072L65.648 75.5568L63.2994 73.2085L60.3003 76.2072H60.349ZM103.836 40.0728C103.741 39.9151 103.593 39.7974 103.418 39.7422C103.242 39.6869 103.053 39.6978 102.885 39.7729C102.803 39.8148 102.729 39.8729 102.669 39.9438C102.609 40.0146 102.564 40.0967 102.537 40.1852C102.481 40.3639 102.499 40.5574 102.585 40.7231C102.936 41.4597 102.838 42.3312 102.336 42.9722C102.274 43.0339 102.225 43.1079 102.193 43.1896C102.16 43.2712 102.145 43.3586 102.149 43.4463C102.15 43.6221 102.217 43.791 102.336 43.9205C102.464 43.9711 102.607 43.9711 102.735 43.9205C102.852 43.9498 102.974 43.9465 103.089 43.9112C103.203 43.8758 103.306 43.8097 103.386 43.72C103.797 43.2161 104.058 42.6061 104.138 41.9604C104.217 41.3147 104.113 40.6615 103.836 40.0728Z" fill="#FF6C37"/>
</svg>

<svg xmlns="http://www.w3.org/2000/svg" fill="none" viewBox="0 0 140 140">
  <path fill="#FF6C37" d="M117.49 33.33a60 60 0 1 0-94.97 73.33 60 60 0 0 0 94.97-73.33Z"/>
  <path fill="#fff" d="M90.2 48.21 64.95 73.74l-7.14-7.36C82.67 41.46 85.16 43.7 90.2 48.2Z"/>
  <path fill="#FF6C37" d="M64.94 74.45a.9.9 0 0 1-.6-.25L57.15 67a.9.9 0 0 1 0-1.26C81.67 41.16 85.01 42.31 90.8 47.57a.8.8 0 0 1 .3.65.7.7 0 0 1-.25.65L65.6 74.21a.94.94 0 0 1-.65.24Zm-5.89-8.06 5.9 5.91L88.9 48.27a5.39 5.39 0 0 0-7.1-1.2c-4.34 1.95-11.33 7.9-22.76 19.32Z"/>
  <path fill="#fff" d="m72.17 80.76-6.9-7.05 25.3-25c6.8 6.65-3.3 17.75-18.4 32.05Z"/>
  <path fill="#FF6C37" d="M72.19 81.66c-.22-.02-.43-.1-.6-.25l-7.05-6.9c-.1-.25-.1-.54 0-.8a.97.97 0 0 1 0-.64L89.83 47.8a.95.95 0 0 1 1.3 0 7.75 7.75 0 0 1 2.5 5.94c0 6.74-7.7 15.23-20.8 27.62-.17.17-.4.28-.64.3Zm-5.6-7.94 5.65 5.64c10-9.44 19.54-19.18 19.59-25.77a5.7 5.7 0 0 0-1.3-3.85L66.59 73.72Z"/>
  <path fill="#fff" d="m57.95 66.54 4.97 5.01a.3.3 0 0 1 .08.35.3.3 0 0 1-.08.1l-10.49 2.25a.99.99 0 0 1-1.08-.5 1 1 0 0 1 .19-1.2l6.11-6.1s.2 0 .3.1Z"/>
  <path fill="#FF6C37" d="M52.2 75.27a1.93 1.93 0 0 1-1.65-.96 1.93 1.93 0 0 1 .35-2.27l6.1-6.19a1.2 1.2 0 0 1 1.59 0l5 5.04c.29.28.4.7.3 1.1-.12.4-.45.72-.86.81L52.5 75.07l-.3.2Zm5.6-7.66-5.65 5.7 9.34-2.02-3.7-3.68Z"/>
  <path fill="#fff" d="M103.71 34.15a9.72 9.72 0 1 0-1.75 15.34l-6.82-6.82 8.57-8.52Z"/>
  <path fill="#FF6C37" d="M96.9 51.77a10.63 10.63 0 0 1-9.68-6.56 10.56 10.56 0 0 1 2.26-11.45 10.74 10.74 0 0 1 15.01 0 .84.84 0 0 1 0 1.3l-8.1 7.63 6.15 6.04a.83.83 0 0 1 .25.75.9.9 0 0 1-.4.64 10.92 10.92 0 0 1-5.5 1.65h.01Zm0-19.36a8.77 8.77 0 1 0 3.5 16.81l-5.9-5.88a.8.8 0 0 1 0-1.25l7.8-7.83a9 9 0 0 0-5.4-1.84Z"/>
  <path fill="#fff" d="m103.8 34.3-8.55 8.5 6.8 6.81c.69-.4 1.32-.86 1.9-1.4a10 10 0 0 0-.15-13.9Z"/>
  <path fill="#FF6C37" d="M101.94 50.38a.74.74 0 0 1-.6-.25l-6.78-6.8a.8.8 0 0 1 0-1.25l8.48-8.36a.9.9 0 0 1 1.5 0 10.52 10.52 0 0 1 0 15.01 9.14 9.14 0 0 1-2 1.6.8.8 0 0 1-.6.05Zm-5.48-7.7 5.63 5.65c.39-.27.75-.57 1.1-.9a8.88 8.88 0 0 0 2.6-6.25c0-2.1-.77-4.13-2.15-5.7l-7.18 7.2Z"/>
  <path fill="#fff" d="M91.27 49.25a3.64 3.64 0 0 0-5 0L63.65 71.91l3.75 3.8 23.92-21.05a3.72 3.72 0 0 0-.05-5.4Z"/>
  <path fill="#FF6C37" d="M67.14 76.61a.9.9 0 0 1-.6-.25l-3.8-3.8a.9.9 0 0 1 0-1.26L85.4 48.7a4.6 4.6 0 1 1 6.3 6.72L67.75 76.46a.85.85 0 0 1-.6.15ZM64.5 71.9l2.5 2.56 23.53-20.5c.58-.5.92-1.23.95-2a2.69 2.69 0 0 0-.85-2.05 2.8 2.8 0 0 0-3.96 0L64.5 71.9Z"/>
  <path fill="#fff" d="M46.08 97.64a.5.5 0 0 0 0 .6l1 4.35a1.3 1.3 0 0 1-.62 1.32 1.22 1.22 0 0 1-1.43-.15l-6.85-6.6 21.35-21.53h7.4l5 5a113.53 113.53 0 0 1-25.85 17.01Z"/>
  <path fill="#FF6C37" d="M45.63 104.97a2.11 2.11 0 0 1-1.5-.65l-6.55-6.53a.8.8 0 0 1 0-1.25l21.5-21.51a.84.84 0 0 1 .45-.25h7.45a.9.9 0 0 1 .6 0l5 4.99a.8.8 0 0 1 .25.7.8.8 0 0 1-.3.65l-.4.35a122.53 122.53 0 0 1-25.65 16.42l.95 4.04a2.15 2.15 0 0 1-2.05 2.64l.25.4Zm-6.1-7.83 5.9 5.94a.3.3 0 0 0 .4 0 .3.3 0 0 0 0-.35l-1-4.35a1.39 1.39 0 0 1 .75-1.6 122.96 122.96 0 0 0 25-16.07l-4.1-4.09h-6.7L39.53 97.14Z"/>
  <path fill="#fff" d="M32.98 102.3 38 97.31l7.74 7.65-12.3-.84a1.02 1.02 0 0 1-.9-.76.98.98 0 0 1 .44-1.08Z"/>
  <path fill="#FF6C37" d="m45.89 105.78-12.2-.85a1.93 1.93 0 0 1-1.6-1.23c-.26-.67-.1-1.46.4-2l5-5.02a.9.9 0 0 1 1.25 0l7.65 7.7a.86.86 0 0 1 0 1 .96.96 0 0 1-.5.4Zm-12.2-2.81 10 .65-5.5-5.18-4.5 4.53Z"/>
  <path fill="#fff" d="m67.61 76.25-10.08 1.54 5.84-5.76 4.24 4.22Z"/>
  <path fill="#FF6C37" d="M57.5 78.78a.85.85 0 0 1-.8-.5.85.85 0 0 1 0-1.01l5.79-5.89a.94.94 0 0 1 1.3 0l4.23 4.28a.85.85 0 0 1 0 .9.89.89 0 0 1-.7.66l-9.96 1.56h.14Zm5.84-5.49-3.24 3.27 5.58-.85-2.34-2.42Z"/>
  <path fill="#fff" d="m67.61 76.24-7.08.9a.92.92 0 0 1-.99-.44.88.88 0 0 1 .13-1.05l3.67-3.62 4.27 4.21Z"/>
  <path fill="#FF6C37" d="M60.35 78.06a1.85 1.85 0 0 1-1.81-2.08c.05-.39.23-.75.51-1.02l3.65-3.65a.95.95 0 0 1 1.3 0l4.25 4.25a.9.9 0 0 1-.55 1.55l-7 .9-.35.05Zm0-1.85 5.3-.65-2.35-2.35-3 3h.05Zm43.49-36.14a.75.75 0 0 0-.95-.3.7.7 0 0 0-.3.95c.35.74.25 1.61-.25 2.25a.63.63 0 0 0-.2.48c.01.17.08.34.2.47.12.05.27.05.4 0a.66.66 0 0 0 .65-.2 3.46 3.46 0 0 0 .45-3.65Z"/>
</svg>
